!!!COM: Vivaldi, Antonio Lucio
!!!CDT: 1678/03/04-1741/08/28
!!!OPR: 12 sonatas for two violins and basso continuo
!!!OTL: Sonata in A major, op. @{OPS}, no. @{ONM} (@{SCT})
!!!OPS: 1
!!!ONM: 9
!!!OMV: 3. Allemanda
!!!SCT: RV 75
!!!SCA: Antonio Vivaldi: Thematisch-systematisches Verzeichnis seiner Werke (Ryom-Verzeichnis)
!!!OMD: Allegro
!!!key: A
**kern	**dynam	**fb	**kern	**dynam	**kern	**dynam
*part3	*	*	*part2	*	*part1	*
*staff3	*	*	*staff2	*	*staff1	*
*ICstr&ICklav	*	*	*ICstr	*	*ICstr	*
*Icello&Icemba	*	*	*Ivioln	*	*Ivioln	*
*	*	*	*I#2	*	*I#1	*
*I"Violoncello\nContinuo	*	*	*I"Violin 2	*	*I"Violin 1	*
*I'bc	*	*	*I'v2	*	*I'v1	*
*>[A,A,B,B]	*>[A,A,B,B]	*>[A,A,B,B]	*>[A,A,B,B]	*>[A,A,B,B]	*>[A,A,B,B]	*>[A,A,B,B]
*>norep[A,B]	*>norep[A,B]	*>norep[A,B]	*>norep[A,B]	*>norep[A,B]	*>norep[A,B]	*>norep[A,B]
*>A	*>A	*>A	*>A	*>A	*>A	*>A
*clefF4	*	*	*clefG2	*	*clefG2	*
*k[f#c#g#]	*	*	*k[f#c#g#]	*	*k[f#c#g#]	*
*A:	*	*	*A:	*	*A:	*
*M4/4	*	*	*M4/4	*	*M4/4	*
*met(c)	*	*	*met(c)	*	*met(c)	*
*MM108	*	*	*MM108	*	*MM108	*
=1	=1	=1	=1	=1	=1	=1
1r	.	.	2r	.	8aa\L	.
.	.	.	.	.	8a\J	.
.	.	.	.	.	8.cc#y\L	.
.	.	.	.	.	16dd\Jk	.
.	.	.	8ee/L	.	4ee\	.
.	.	.	8e/	.	.	.
.	.	.	8.f#y/	.	4dd\	.
.	.	.	16g#y/Jk	.	.	.
=2	=2	=2	=2	=2	=2	=2
8A/L	.	.	8a\L	.	8cc#y\L	.
8AA/	.	.	8cc#y\	.	8ee\J	.
8.C#y/	.	6	8.ee\	.	8aa\L	.
.	.	.	.	.	16bb\L	.
16D/Jk	.	.	16ff#y\Jk	.	16aa\JJ	.
8E/L	.	.	4b\	.	8gg#y\L	.
8EE/J	.	.	.	.	8b\J	.
8r	.	.	8r	.	[4ee\	.
8E\	.	.	8g#y/	.	.	.
=3	=3	=3	=3	=3	=3	=3
8F#y/L	.	7	4a/	.	8ee/L]	.
8FF#y/	.	6	.	.	8dd/	.
8GG#y/	.	6 5	4b\	.	8e/	.
8G#y/J	.	.	.	.	8dd/J	.
8A/L	.	.	4e/	.	8cc#y/L	.
8AA/J	.	.	.	.	8A/J	.
8r	.	.	8r	.	[4aa\	.
8A\	.	.	8cc#y\	.	.	.
=4	=4	=4	=4	=4	=4	=4
8B\L	.	7	4dd\	.	8aa\L]	.
8BB\	.	6nr	.	.	8ggn\	.
8C#y\	.	6 5nr	4ee\	.	8a\	.
8c#y\J	.	.	.	.	8ggn\J	.
8d\L	.	.	4a/	.	8ff#y\L	.
8D\J	.	.	.	.	8d\	.
8r	.	.	4ff#y\	.	8bb\	.
8d#X\	.	5	.	.	8aa\J	.
!!LO:LB:g=original
=5	=5	=5	=5	=5	=5	=5
8e\L	.	.	4b\	.	8gg#X\L	.
8E\J	.	.	.	.	8e\J	.
8r	.	.	[4ee\	.	8r	.
8C#y/	.	6	.	.	8ee\	.
8D\L	.	9	8ee\L]	.	4.ff#y\	.
8E\	.	.	16dd\L	.	.	.
.	.	.	16cc#y\JJ	.	.	.
8F#y\	.	6	8dd\L	.	.	.
8D\J	.	6	8dd\J	.	8bb\	.
=6	=6	=6	=6	=6	=6	=6
4E\	.	7	(4dd\	.	8gg#y\L	.
.	.	.	.	.	8ee\J	.
8r	.	.	8cc#y\L)	.	2aa\	.
8C#y/	.	6	8ee\J	.	.	.
8D/L	.	6 5	8ff#y\L	.	.	.
8BB/	.	.	8b\J	.	.	.
8E/	.	.	4b\	.	4gg#y\t	.
8EE/J	.	.	.	.	.	.
=7	=7	=7	=7	=7	=7	=7
4AA/	.	.	4a/	.	4aa\	.
4r	.	.	8.cc#y\L	.	4r	.
.	.	.	16dd\Jk	.	.	.
2r	.	.	8ee/L	.	4r	.
.	.	.	8e/	.	.	.
.	.	.	8dd/	.	8.ff#y\L	.
.	.	.	8dd/J	.	.	.
.	.	.	.	.	16gg#y\Jk	.
=8	=8	=8	=8	=8	=8	=8
4r	.	.	(8dd\L	.	8aa\L	.
.	.	.	8cc#y\)	.	8a\	.
8.c#y\L	.	6	8.ee\	.	8aa\	.
.	.	.	.	.	8aa\J	.
16d#X\Jk	.	.	16ff#y\Jk	.	.	.
8e\L	.	5 4	4b\	.	(8aa\L	.
8E\	.	3	.	.	8gg#y\J)	.
8e\	.	.	8r	.	4r	.
8e\J	.	.	8gg#y\	.	.	.
=9	=9	=9	=9	=9	=9	=9
8e\L	.	.	8gg#y\L	.	4r	.
8d#X\J	.	6	8ff#y\	.	.	.
8r	.	.	8ff#y\	.	2bb\	.
8d#y\	.	6	8ff#y\J	.	.	.
8d#y\L	.	.	(8ff#y\L	.	.	.
8c#y\	.	.	8ee\J)	.	.	.
8c#y\	.	6	8r	.	[4aa\	.
8c#y\J	.	.	8ee\	.	.	.
!!LO:LB:g=original
=10	=10	=10	=10	=10	=10	=10
8c#y\L	.	.	8ee\L	.	4aa\]	.
8B\J	.	#	8dd#X\	.	.	.
8r	.	.	8dd#y\	.	2gg#y\	.
8B\	.	6	8dd#y\J	.	.	.
8B\L	.	.	(8dd#y\L	.	.	.
8A\	.	.	8cc#y\J)	.	.	.
8A\	.	6	8r	.	[4ff#y\	.
8A\J	.	.	8cc#y\	.	.	.
=11	=11	=11	=11	=11	=11	=11
8A\L	.	6	(8cc#y\L	.	4ff#y\]	.
8G#y\J	.	.	8b\J)	.	.	.
8r	.	.	8r	.	2ee\	.
8G#y\	.	6	8b\	.	.	.
8A\L	.	6 5	4cc#y\	.	.	.
8F#y\	.	.	.	.	.	.
8B\	.	#	8f#y/L	.	4dd#X\t	.
8BB\J	.	.	8b/J	.	.	.
=12	=12	=12	=12	=12	=12	=12
4E\	.	.	4g#y/	.	8ee\L	.
.	.	.	.	.	16gg#y\L	.
.	.	.	.	.	16aa\JJ	.
4D#X\	.	6	4r	.	8bb\L	.
.	.	.	.	.	8b\J	.
4C#y/	.	5	8r	.	4ee\	.
.	.	.	16gg#y\LL	.	.	.
.	.	.	16aa\JJ	.	.	.
4BB/	.	#	8bb\L	.	4r	.
.	.	.	8b\J	.	.	.
=13	=13	=13	=13	=13	=13	=13
4.AA/	.	.	4.cc#y\	.	8r	.
.	.	.	.	.	8ee\	.
.	.	.	.	.	8aa\L	.
8AA/	.	.	8cc#y\	.	8cc#y\J	.
4BB/	.	#	4f#y/	.	8dd#X\L	.
.	.	.	.	.	8b\J	.
8r	.	.	8r	.	[4ee\	.
8GG#y/	.	6	8b\	.	.	.
!!LO:LB:g=original
=14	=14	=14	=14	=14	=14	=14
4AA/	.	6 5	4cc#y\	.	8ee/L]	.
.	.	.	.	.	8g#y/	.
4BB/	.	#	8f#y/L	.	8B/	.
.	.	.	8b/J	.	8dd#X/J	.
2E\	.	.	2g#y/	.	2e/	.
=15:|!|:	=15:|!|:	=15:|!|:	=15:|!|:	=15:|!|:	=15:|!|:	=15:|!|:
*>B	*>B	*>B	*>B	*>B	*>B	*>B
2r	.	.	2r	.	8.ee\L	.
.	.	.	.	.	16ff#y\k	.
.	.	.	.	.	8gg#y\	.
.	.	.	.	.	8ee\J	.
8.C#y/L	.	6	8.ee\L	.	4.aa\	.
16BB/k	.	.	16dd\k	.	.	.
8AA/	.	.	8cc#y\	.	.	.
8C#y/J	.	5	8ee\J	.	8gg#y\	.
=16	=16	=16	=16	=16	=16	=16
4D\	.	.	4a/	.	8.ff#y\L	.
.	.	.	.	.	16gg#y\k	.
4r	.	.	4r	.	8aa\	.
.	.	.	.	.	8ff#y\J	.
8.D#X/L	.	6	8.ff#y\L	.	4.bb\	.
16C#y/k	.	.	16ee\k	.	.	.
8BB/	.	.	8dd#X\	.	.	.
8D#X/J	.	5	8ff#y\J	.	8aa\	.
=17	=17	=17	=17	=17	=17	=17
4E\	.	.	4b\	.	8.gg#y\L	.
.	.	.	.	.	16aa\k	.
4r	.	.	4r	.	8bb\	.
.	.	.	.	.	8gg#y\J	.
8.E#X\L	.	6	8.gg#y\L	.	4.ccc#y\	.
16D\k	.	.	16ff#y\k	.	.	.
8C#y\	.	.	8ee#X\	.	.	.
8E#X\J	.	5	8gg#y\J	.	8bb\	.
=18	=18	=18	=18	=18	=18	=18
4F#y\	.	.	4cc#y\	.	8.aa\L	.
.	.	.	.	.	16bb\k	.
4r	.	.	8r	.	8ccc#y\	.
.	.	.	8cc#y\	.	8aa\J	.
4.BB/	.	.	8dd\L	.	8bb\L	.
.	.	.	8cc#y\	.	8aa\	.
.	.	.	8b\	.	8gg#y\	.
8BB/	.	.	8a\J	.	8ff#y\J	.
!!LO:PB:g=original
=19	=19	=19	=19	=19	=19	=19
8C#y\L	.	#	4g#y/	.	8ee#X\L	.
8c#y\	.	.	.	.	8cc#y\J	.
8A\	.	6	4a/	.	[4ff#y\	.
8F#y\J	.	.	.	.	.	.
4.G#y\	.	7	2b\	.	8ff#y\L]	.
.	.	6	.	.	8een\J	.
.	.	.	.	.	8e/L	.
8G#y\	.	5nr	.	.	8dd/J	.
=20	=20	=20	=20	=20	=20	=20
4.A\	.	.	4e/	.	8cc#y/L	.
.	.	.	.	.	8A/J	.
.	.	.	8r	.	[4aa\	.
8A\	.	.	8cc#y\	.	.	.
4.BB#X/	.	7	4dd#X\	.	8aa\L]	.
.	.	.	.	.	8ff#y\	.
.	.	6	4b#X\	.	8gg#y\	.
8BB#y/	.	.	.	.	8dd#X\J	.
=21	=21	=21	=21	=21	=21	=21
4C#y/	.	.	8g#y\L	.	8ee\L	.
.	.	.	8gg#y\J	.	8cc#y\J	.
8r	.	.	2aa\	.	8r	.
8c#y\	.	6	.	.	8ee\	.
8c#y\L	.	.	.	.	8ee\L	.
8B#X\J	.	.	.	.	8dd#X\	.
8r	.	.	[4gg#y\	.	8dd#y\	.
8Bn\	.	7 #	.	.	8dd#y\J	.
=22	=22	=22	=22	=22	=22	=22
8B\L	.	6	4gg#y\]	.	(8dd\L	.
8A#X\	.	.	.	.	8cc#y\J)	.
8An\	.	6	2ff#y\	.	8r	.
8A\J	.	.	.	.	8aa\	.
8A\L	.	4#| 2#|	.	.	4b#X\	.
8G#y\J	.	.	.	.	.	.
8r	.	.	4ee\	.	[4cc#y\	.
8C#y/	.	.	.	.	.	.
!!LO:LB:g=original
=23	=23	=23	=23	=23	=23	=23
8F#y/L	.	6#/ 5	2dd#X\	.	4cc#y\]	.
8D#X/	.	.	.	.	.	.
8G#y/	.	#	.	.	4b#X\	.
8GG#y/J	.	.	.	.	.	.
4.C#y/	.	.	4cc#y\	.	4cc#y\	.
.	.	.	4r	.	8.cc#y\L	.
8BB/	.	.	.	.	.	.
.	.	.	.	.	16dd#y\Jk	.
=24	=24	=24	=24	=24	=24	=24
4.AA#X/	.	6 5	2cc#y\	.	8ee\L	.
.	.	.	.	.	8a#y\J	.
.	.	.	.	.	8f#y\L	.
8AA#y/	.	.	.	.	8ee\J	.
4.BB/	.	n	2f#y/	.	8ddn/L	.
.	.	.	.	.	8B/	.
.	.	.	.	.	8.b/	.
8AAn/	.	.	.	.	.	.
.	.	.	.	.	16cc#y/Jk	.
=25	=25	=25	=25	=25	=25	=25
4.GG#y/	.	6 5	2b\	.	8dd/L	.
.	.	.	.	.	8g#y/	.
.	.	.	.	.	8e/	.
8GG#y/	.	.	.	.	8dd/J	.
2AA/	.	.	4e/	.	8cc#y/L	.
.	.	.	.	.	8A/J	.
.	.	.	4cc#y\	.	8r	.
.	.	.	.	.	8aa\	.
=26	=26	=26	=26	=26	=26	=26
4.BB/	.	7	8dd\L	.	(8aa\L	.
.	.	6	8dd\	.	8gg#y\)	.
.	.	.	8dd\	.	(8gg#y\	.
8BB/	.	5	8dd\J	.	8ff#y\J)	.
4C#y/	.	#	4.g#y/	.	8ee#X\L	.
.	.	.	.	.	8cc#y\J	.
4E#y\	.	6 5	.	.	8b/L	.
.	.	.	8gg#y\	.	16a/L	.
.	.	.	.	.	16g#y/JJ	.
!!LO:LB:g=original
=27	=27	=27	=27	=27	=27	=27
4F#y\	.	.	8cc#y/L	.	8a\L	.
.	.	.	8a/	.	8ff#y\	.
8E#X\L	.	7 5	8.b/	.	8.g#y\	.
8F#y\J	.	5 3	.	.	.	.
.	.	.	16a/Jk	.	16f#y\Jk	.
4c#y\	.	5 4	4.g#y/	.	8c#y/L	.
.	.	.	.	.	8ff#y/	.
4C#y/	.	#	.	.	8c#y/	.
.	.	.	8cc#y\	.	8ee#X/J	.
=28	=28	=28	=28	=28	=28	=28
4F#y\	.	.	8a/L	.	4ff#y\	.
.	.	.	8f#y/J	.	.	.
8r	.	.	[4ff#y\	.	8r	.
8F#y\	.	#	.	.	8aa#X\	.
8G#y/L	.	7	8ff#y\L]	.	4bb\	.
8GG#y/J	.	6	8ee\	.	.	.
8AA#X\L	.	6 5	8f#y\	.	4ccc#y\	.
8A#X\J	.	.	8ee\J	.	.	.
=29	=29	=29	=29	=29	=29	=29
8B\L	.	.	8dd/L	.	4ff#y\	.
8BB\J	.	.	8B/J	.	.	.
8r	.	.	8r	.	[4bb\	.
8B\	.	#	8dd#y\	.	.	.
8c#y\L	.	7	4ee\	.	8bb\L]	.
8C#y\J	.	6nr	.	.	8aan\J	.
8D#X\L	.	6 5	4ff#y\	.	8b\L	.
8d#X\J	.	.	.	.	8aa\J	.
=30	=30	=30	=30	=30	=30	=30
8e\L	.	.	4b\	.	8gg#y\L	.
8E\J	.	.	.	.	8e\J	.
8r	.	.	[4ee\	.	8r	.
8E\	.	.	.	.	8gg#y\	.
8F#y/L	.	7	8ee/L]	.	4aa\	.
8FF#y/	.	6	8dd/	.	.	.
8GG#y/	.	6 5	8e/	.	4bb\	.
8G#y/J	.	.	8dd/J	.	.	.
=31	=31	=31	=31	=31	=31	=31
8A\L	.	.	8cc#y/L	.	4ee\	.
8AA\J	.	.	8A/J	.	.	.
8r	.	.	8r	.	[4aa\	.
8A\	.	.	8cc#y\	.	.	.
8B\L	.	7	4dd\	.	8aa\L]	.
8BB\	.	6nr	.	.	8ggn\J	.
8C#y\	.	6 5nr	4ee\	.	8a\L	.
8c#y\J	.	.	.	.	8ggn\J	.
!!LO:LB:g=original
=32	=32	=32	=32	=32	=32	=32
8d\L	.	.	4a/	.	8ff#y\L	.
8D\J	.	.	.	.	8d\	.
8r	.	.	4ff#y\	.	8bb\	.
8d#X\	.	5	.	.	8aa\J	.
8e\L	.	.	4b\	.	8gg#X\L	.
16E\L	.	.	.	.	8e\J	.
16F#y\JJ	.	.	.	.	.	.
8G#y\L	.	6	8r	.	4r	.
8E\J	.	.	8ee\	.	.	.
=33	=33	=33	=33	=33	=33	=33
4F#y\	.	7	8ee\L	.	4r	.
.	.	6	8dd\	.	.	.
4BB/	.	.	8dd\	.	8r	.
.	.	.	8dd\J	.	8bb\	.
4E\	.	7	(4dd\	.	8gg#y\L	.
.	.	.	.	.	8ee\J	.
8r	.	.	8cc#y\L)	.	[4aa\	.
8C#y/	.	6	8ee\J	.	.	.
=34	=34	=34	=34	=34	=34	=34
4D\	.	6 5	4ff#y\	.	8aa\L]	.
.	.	.	.	.	8cc#y\J	.
4E\	.	.	8b\L	.	8e\L	.
.	.	.	8ee\J	.	8gg#y\J	.
8AA\L	p	.	4cc#y\	.	4a/	.
16A\L	.	.	.	.	.	.
16G#y\JJ	.	.	.	.	.	.
8F#y\L	.	.	8r	.	4r	.
8E\J	.	.	8ee\	p	.	.
=35	=35	=35	=35	=35	=35	=35
4F#y\	.	7	8ee\L	.	4r	.
.	.	6	8dd\	.	.	.
4BB/	.	.	8dd\	.	8r	.
.	.	.	8dd\J	.	8bb\	p
4E\	.	7	(4dd\	.	8gg#y\L	.
.	.	.	.	.	8ee\J	.
8r	.	.	8cc#y\L)	.	[4aa\	.
8C#y/	.	6	8ee\J	.	.	.
=36	=36	=36	=36	=36	=36	=36
4D\	.	7 5	4ff#y\	.	8aa\L]	.
.	.	.	.	.	8cc#y\J	.
4E\	.	.	8b\L	.	8e\L	.
.	.	.	8ee\J	.	8gg#y\J	.
2AA/;	.	.	2cc#y\;	.	2A/;	.
=:|!	=:|!	=:|!	=:|!	=:|!	=:|!	=:|!
*-	*-	*-	*-	*-	*-	*-
!!!SMS: RV 75 / Estienne Roger (No. 363), Amsterdam [facs.]
!!!ENC: Fran Bennion   rev. 05/14/21 E Correia
!!!END: 2004/10/26
!!!ONB: Converted from MuseData with musedata2hum on Sat May 11 12:01:56 2024
!!!YEM: (C) 2004, 2019 Center for Computer Assisted Research in the Humanities
!!!system-decoration: [(s1,s2,s3)]
!!!URL-info: https://wiki.ccarh.org/wiki/MuseData:_Antonio_Vivaldi#Op._1:_Suonate_da_camera_a_tr.C3.A8.2C_due_violini_e_violone_o_cembalo Information about Vivaldi Op. 1 on the CCARH wiki
!!!URL-pdf: https://pdf.musedata.org/vivaldi-op01-no09.pdf#page=3 MuseData edition
!!!URL-pdf: https://s9.imslp.org/files/imglnks/usimg/1/18/IMSLP280399-PMLP10351-Vivaldi_Sonatas_Op_1_-_Violino_Primo.pdf#page=14 Violino primo part, Amsterdam: Estienne Roger, n.d.(ca.1723). Plate 363.
!!!URL-pdf: https://s9.imslp.org/files/imglnks/usimg/d/d5/IMSLP280400-PMLP10351-Vivaldi_Sonatas_Op_1_-_Violino_Secondo.pdf#page=12 Violino secondo part, Amsterdam: Estienne Roger, n.d.(ca.1723). Plate 363.
!!!URL-pdf: https://s9.imslp.org/files/imglnks/usimg/8/89/IMSLP280401-PMLP10351-Vivaldi_Sonatas_Op_1_-_Organo_e_Violoncello.pdf#page=13 Organo e Violoncello parts, Amsterdam: Estienne Roger, n.d.(ca.1723). Plate 363.
!!!URL-youtube: https://www.youtube.com/watch?v=P5HHPe_W6Uo&t=2736s L'Arte dell'Arco
!!!title: @{OTL}, mov. @{OMV}
!!!filter-vcross: vcross
!!!mei: scoreDef@tempo.dist="5.5"
!!!EEV: 2024/05/11
!!!source-file: https://bitbucket.org/musedata/vivaldi/src/master/roger/op1/no09/stage2/03/01
!!!source-file: https://bitbucket.org/musedata/vivaldi/src/master/roger/op1/no09/stage2/03/02
!!!source-file: https://bitbucket.org/musedata/vivaldi/src/master/roger/op1/no09/stage2/03/03
!!!source-file: https://bitbucket.org/musedata/vivaldi/src/master/roger/op1/no09/stage2/03/04
